X:75
T:Jim Ward's
Z: id:dc-jig-62
M:6/8
L:1/8
K:G Major
D|G3 GAB|AGE GED|G3 GAB|AGE E2D|!
G3 GAB|AGE GAB|cBA BGE|DED D2:|!
B|cBA BAG|ABA AGE|cBA BGE|DED D2B|!
cBA BAG|ABA ABc|dcA AGE|DED D2:|!